X:517
T:Polska # 517
T: efter fadern
Q: 110
M:3/4
L:1/16
K: G
d3B c2A2 G4| GABc dedc B2G2| G2Bd g2d2 B2G2| BAGF G4 G,4:|
|:[K:D] D3D FDF2 AFA2| dAd2 fdf2 a4| b2g2 a2e2 f2d2| ddcd ecdB AGFE|
D3D FDF2 AFA2| dAd2 fdf2 a4| b2g2 a2e2 f2d2| (cd)ec d4D4:|

